modules/feathericon/icons/clock.svg

<?xml version="1.0" encoding="UTF-8"?>
<svg width="24px" height="24px" viewBox="0 0 24 24" version="1.1" xmlns="http://www.w3.org/2000/svg" xmlns:xlink="http://www.w3.org/1999/xlink">
    <!-- Generator: sketchtool 52.2 (67145) - http://www.bohemiancoding.com/sketch -->
    <title>clock</title>
    <desc>Created with sketchtool.</desc>
    <g id="web-app" stroke="none" stroke-width="1" fill="none" fill-rule="evenodd">
        <g id="clock" fill="#000000">
            <path d="M12,22 C6.4771525,22 2,17.5228475 2,12 C2,6.4771525 6.4771525,2 12,2 C17.5228475,2 22,6.4771525 22,12 C22,17.5228475 17.5228475,22 12,22 Z M20,12 C20,7.581722 16.418278,4 12,4 C7.581722,4 4,7.581722 4,12 C4,16.418278 7.581722,20 12,20 C16.418278,20 20,16.418278 20,12 Z M16,11 C16.5522847,11 17,11.4477153 17,12 C17,12.5522847 16.5522847,13 16,13 C14,13 13,13 13,13 C11.8999996,13 11,12.1000004 11,11 C11,11 11,9.66666667 11,7 C11,6.44771525 11.4477153,6 12,6 C12.5522847,6 13,6.44771525 13,7 L13,11 L16,11 Z" id="Shape"></path>
        </g>
    </g>
</svg>

<svg width="24" height="24" viewBox="0 0 24 24" xmlns="http://www.w3.org/2000/svg"><path d="M12 22C6.477 22 2 17.523 2 12S6.477 2 12 2s10 4.477 10 10-4.477 10-10 10zm8-10a8 8 0 1 0-16 0 8 8 0 0 0 16 0zm-4-1a1 1 0 0 1 0 2h-3c-1.1 0-2-.9-2-2V7a1 1 0 0 1 2 0v4h3z" fill="#000" fill-rule="evenodd"/></svg>
